!! 00000] TT[WS
!!!OTL: Feng caiyun
!!!ARE: Asia, China,ÿShanxi Linxian
!! Ethnic Group: Han
!! WI, 94 (2)
!!!SCT: J0113
!!!YEM: Copyright 1995, estate of Helmut Schaffrath.
**kern
*ICvox
*Ivox
*M2/4
*k[f#]
*G:
{8dd
8dd
8b
8dd
=1
8ee
8b
8.a
16b
=2
8dd
16ee
16gg
16dd
16ee
16dd
16b
=3
8a
8g
8e
8d}
=4
{8g
16g
16a
8b
16dd
16ee
=5
8b
16a
16b
8.d
16e
=6
8g
16f#
16e
8a
8e
=7
2d}
==
!!!AGN: Xiaodiao. Qingge, Aisu
!!!ONB: ESAC (Essen Associative Code) Database: CHINA
!!!AMT: simple duple
!!!AIN: vox
!!!EED: Helmut Schaffrath
!!!EEV: 1.0
*-
